!!!OTL: 1732b. Jungfer Lieschen.
!!!ARE: Europa, Mitteleuropa, Deutschland, Hessen, Lahn - Kreis; Wetterau;
!!    Frankreich, Elsass
!!!SCT: E1732A
!!!TXL: @@DE
!!!YEM: Copyright 1995, estate of Helmut Schaffrath.
**kern	**text
*ICvox	*
*M3/4	*
*k[f#]	*
*G:	*
!LO:TX:a:t=Sehr mäßig.	!
!LO:TX:a:t=Aus dem Lahnkreiſe, der Wetterau und dem Elſaß 1880-1890.	!
{8g	Jung-
8b/	-fer
=1	=1
4dd	Lies-
4b	-chen
8dd	ſchlief
8ee	da
=2	=2
8ddL	dro-
8ccJ	.
4a}	-ben
{[8dd	in
8dd	dem
=3	=3
4b	Bett-
4b	-chen
8ddL	al-
8bJ	.
=4	=4
2a}	-lein,
{8bL	die
8aJ	.
=5	=5
4g	Thü-
4b/	-re
4a	ſtand
=6	=6
4b	of-
4dd}	-fen,
{8ccL	ich
8eeJ	.
=7	=7
4dd	ſchlich
4b	mich
4a	hi-
=8	=8
2g}	-nein.
==	==
!!!AGN: Scherz - Lied
!!!ONB: ESAC (Essen Associative Code) Database: ERK3
!!!AMT: simple triple
!!!AIN: vox
!!!EED: Helmut Schaffrath
!!!EEV: 1.0
!!!GTL: Scherz-, Spiel- und Spottlieder.
!!!URL-scan: https://rosdok.uni-rostock.de/mcrviewer/recordIdentifier/rosdok_ppn745177999/iview2/phys_0526.iview2?x=-449.8344612962892&y=424.9628462085966&scale=0.47549036216460333&rotation=0&layout=singlePageLayout
!!!ENC: Anna Maria Matuszewska
!!!EEV: 2025/08/01
*-	*-
